synths/sXTZ.svg

<svg width="42" height="42" viewBox="0 0 42 42" fill="none" xmlns="http://www.w3.org/2000/svg">
<g clip-path="url(#clip0_7277_57880)">
<mask id="mask0_7277_57880" style="mask-type:alpha" maskUnits="userSpaceOnUse" x="0" y="0" width="42" height="42">
<circle cx="21" cy="21" r="21" fill="url(#paint0_linear_7277_57880)"/>
</mask>
<g mask="url(#mask0_7277_57880)">
<circle cx="21" cy="21" r="21" fill="#34EDB3"/>
<circle cx="21" cy="21" r="18.2" fill="white"/>
</g>
<circle cx="21" cy="21" r="16.1" fill="#06061B"/>
<g clip-path="url(#clip1_7277_57880)">
<path d="M21 37.2676C29.9844 37.2676 37.2676 29.9844 37.2676 21C37.2676 12.0157 29.9844 4.73242 21 4.73242C12.0157 4.73242 4.73242 12.0157 4.73242 21C4.73242 29.9844 12.0157 37.2676 21 37.2676Z" fill="#A6E000"/>
<path fill-rule="evenodd" clip-rule="evenodd" d="M23.2267 31.1673C21.7423 31.1673 20.6605 30.8175 19.9813 30.12C19.3032 29.4205 18.9636 28.6671 18.9636 27.8599C18.9636 27.565 19.0225 27.3159 19.1415 27.1146C19.2575 26.9148 19.425 26.7498 19.6265 26.6367C19.8319 26.5208 20.084 26.4619 20.3839 26.4619C20.6839 26.4619 20.937 26.5208 21.1424 26.6367C21.3478 26.7537 21.5084 26.9123 21.6274 27.1146C21.7464 27.3159 21.8053 27.565 21.8053 27.8599C21.8053 28.2167 21.7189 28.5075 21.545 28.7332C21.3927 28.9432 21.1766 29.0983 20.9289 29.1755C21.1343 29.4551 21.4576 29.6534 21.8999 29.7693C22.3422 29.8943 22.7844 29.9564 23.2257 29.9564C23.8188 29.9633 24.4004 29.793 24.8962 29.4673C25.3933 29.1409 25.7604 28.659 25.9963 28.0236C26.2332 27.3861 26.3521 26.6642 26.3521 25.8569C26.3521 24.9795 26.222 24.2302 25.9617 23.6089C25.7085 22.9796 25.3334 22.5139 24.8362 22.2109C24.3523 21.9121 23.7944 21.755 23.2257 21.7575C22.8475 21.7575 22.3737 21.912 21.8053 22.2231L20.7632 22.7356V22.2231L25.4523 16.074H18.9636V22.456C18.9636 22.9847 19.0815 23.4188 19.3194 23.7604C19.5553 24.102 19.9193 24.2729 20.4073 24.2729C20.7866 24.2729 21.1495 24.1488 21.4973 23.8997C21.846 23.6497 22.1502 23.3428 22.3971 22.9918C22.4215 22.9307 22.4627 22.8778 22.516 22.8393C22.5589 22.8029 22.6133 22.7827 22.6695 22.7823C22.757 22.7823 22.8586 22.825 22.9776 22.9094C23.0855 23.0269 23.1447 23.181 23.1433 23.3405C23.1298 23.4503 23.1101 23.5593 23.0844 23.6669C22.8159 24.2566 22.4438 24.707 21.971 25.0181C21.508 25.3253 20.964 25.4874 20.4083 25.4838C19.0032 25.4838 18.0323 25.2123 17.4954 24.6684C16.9586 24.1254 16.6902 23.3873 16.6902 22.456V16.074H13.3746V14.8854H16.6892V12.185L15.9327 11.4387V10.8328H18.1349L18.9636 11.2517V14.8854L27.5356 14.862L28.3896 15.7008L23.1311 20.8719C23.4497 20.7467 23.7845 20.6679 24.1255 20.6381C24.6949 20.6381 25.3334 20.817 26.044 21.1749C26.7629 21.5236 27.315 22.0056 27.7013 22.6186C28.0887 23.2246 28.3378 23.8072 28.4476 24.3664C28.5581 24.8558 28.6177 25.3553 28.6255 25.8569C28.6329 26.8182 28.4139 27.7677 27.986 28.6285C27.5749 29.4674 26.8898 30.141 26.044 30.5379C25.1652 30.9597 24.2015 31.1749 23.2267 31.1673V31.1673Z" fill="white"/>
</g>
</g>
<defs>
<linearGradient id="paint0_linear_7277_57880" x1="21" y1="0" x2="21" y2="61.4091" gradientUnits="userSpaceOnUse">
<stop stop-color="#08021E"/>
<stop offset="1" stop-color="#1F0777"/>
</linearGradient>
<clipPath id="clip0_7277_57880">
<rect width="42" height="42" fill="white"/>
</clipPath>
<clipPath id="clip1_7277_57880">
<rect width="32.5352" height="32.5352" fill="white" transform="translate(4.73242 4.73242)"/>
</clipPath>
</defs>
</svg>

<svg xmlns="http://www.w3.org/2000/svg" width="42" height="42" fill="none"><g clip-path="url(#a)"><mask id="c" width="42" height="42" x="0" y="0" maskUnits="userSpaceOnUse" style="mask-type:alpha"><circle cx="21" cy="21" r="21" fill="url(#b)"/></mask><g mask="url(#c)"><circle cx="21" cy="21" r="21" fill="#34EDB3"/><circle cx="21" cy="21" r="18.2" fill="#fff"/></g><circle cx="21" cy="21" r="16.1" fill="#06061B"/><g clip-path="url(#d)"><path fill="#A6E000" d="M21 37.268c8.984 0 16.268-7.284 16.268-16.268 0-8.984-7.284-16.268-16.268-16.268-8.984 0-16.268 7.284-16.268 16.268 0 8.984 7.284 16.268 16.268 16.268Z"/><path fill="#fff" fill-rule="evenodd" d="M23.227 31.167c-1.485 0-2.567-.35-3.246-1.047-.678-.7-1.017-1.453-1.017-2.26 0-.295.059-.544.178-.745.116-.2.283-.365.485-.478a1.52 1.52 0 0 1 .757-.175c.3 0 .553.059.758.175.206.117.366.275.485.478.12.2.178.45.178.745 0 .357-.086.648-.26.873-.152.21-.368.365-.616.442.205.28.529.478.97.594.443.125.885.187 1.327.187a2.98 2.98 0 0 0 1.67-.489c.497-.326.864-.808 1.1-1.443.237-.638.356-1.36.356-2.167 0-.877-.13-1.627-.39-2.248-.253-.63-.629-1.095-1.126-1.398a3.04 3.04 0 0 0-1.61-.453c-.378 0-.852.154-1.42.465l-1.043.513v-.513l4.69-6.149h-6.49v6.382c0 .529.118.963.356 1.304.236.342.6.513 1.088.513.38 0 .742-.124 1.09-.373.349-.25.653-.557.9-.908a.347.347 0 0 1 .119-.153.24.24 0 0 1 .154-.057c.087 0 .189.043.308.127a.63.63 0 0 1 .165.431 2.96 2.96 0 0 1-.059.327c-.268.59-.64 1.04-1.113 1.351a2.794 2.794 0 0 1-1.563.466c-1.405 0-2.376-.272-2.913-.816-.536-.543-.805-1.28-.805-2.212v-6.382h-3.315v-1.189h3.314v-2.7l-.756-.746v-.606h2.202l.829.419v3.633l8.572-.023.854.839-5.259 5.17c.319-.124.654-.203.994-.233.57 0 1.208.179 1.919.537.719.349 1.271.83 1.657 1.444.388.606.637 1.188.747 1.747.11.49.17.99.177 1.49a6.12 6.12 0 0 1-.639 2.772 4.104 4.104 0 0 1-1.942 1.91 6.396 6.396 0 0 1-2.817.63Z" clip-rule="evenodd"/></g></g><defs><clipPath id="a"><path fill="#fff" d="M0 0h42v42H0z"/></clipPath><clipPath id="d"><path fill="#fff" d="M4.732 4.732h32.535v32.535H4.732z"/></clipPath><linearGradient id="b" x1="21" x2="21" y1="0" y2="61.409" gradientUnits="userSpaceOnUse"><stop stop-color="#08021E"/><stop offset="1" stop-color="#1F0777"/></linearGradient></defs></svg>
